X:252
T: Das Kchuehorn
N: A0297
O: Europa, Mitteleuropa, Deutschland
N: Spoerels Liederhandschr. 14. Jh. Cod. 2856 der Hofbibl. zu Wien
N: fol 187
R: Romanze, Ballade, Lied
M: 4/4
L: 1/4
K: F
FAc2 | fccA | c2
FA | c2fc | cAFz
fcAF | ABc2
fccA | FAF2
F2FA2A | c2cc2
c | f2fc2c | c2cA2A | c3z3
F2FA2A | c2cc2
c | f2fc2c | c2cA2A | c3z2
f | f2cc2A | c2cA2F
A2AB2B | c3z2
f | f2cc2A | c2cA2A
F2FA2A | F3z3

